src/images/puppytraining.svg

<svg id="ba852881-1fdd-4058-baca-f1caa98e12dd" data-name="Layer 1" xmlns="http://www.w3.org/2000/svg" width="811.89649" height="549" viewBox="0 0 811.89649 549"><path d="M194.05176,402.04562c0-67.16541,54.44832-226.54562,121.61373-226.54562S437.27923,334.88021,437.27923,402.04562a121.61374,121.61374,0,0,1-243.22747,0Z" transform="translate(-194.05176 -175.5)" fill="#31cde6"/><path d="M315.66545,697.918a1,1,0,0,1-1-1V277.63379a1,1,0,0,1,2,0V696.918A1,1,0,0,1,315.66545,697.918Z" transform="translate(-194.05176 -175.5)" fill="#3f3d56"/><path d="M315.66545,358.57959a.99683.99683,0,0,1-.70715-.293l-48.13452-48.13428a1,1,0,1,1,1.4143-1.41406l48.13453,48.13428a1,1,0,0,1-.70716,1.707Z" transform="translate(-194.05176 -175.5)" fill="#3f3d56"/><path d="M315.66545,441.90967a1,1,0,0,1-.70715-1.707l80.61-80.61035a1,1,0,1,1,1.41431,1.41406l-80.61,80.61035A.99708.99708,0,0,1,315.66545,441.90967Z" transform="translate(-194.05176 -175.5)" fill="#3f3d56"/><path d="M243.31913,724.11381c.17385.13427.35658.25485.53221.38619H392.94449c2.92142-11.83653,3.953-23.68571-.41069-33.97582-6.21717-14.66282-24.61809-23.81571-39.24692-17.51888a22.33763,22.33763,0,0,0-8.77358,6.94176c-5.71689-10.23335-15.9718-17.949-27.80872-17.94055-14.82975.01059-27.15985,12.13812-31.18341,26.14659-6.47972-10.937-19.27818-18.58032-31.78747-15.29233C232.81053,678.36005,226.20174,710.88481,243.31913,724.11381Z" transform="translate(-194.05176 -175.5)" fill="#f2f2f2"/><path d="M831.05176,492.791C831.05176,444.52731,870.20367,330,918.5,330s87.44824,114.52731,87.44824,162.791a87.44826,87.44826,0,0,1-174.89648,0Z" transform="translate(-194.05176 -175.5)" fill="#e6e6e6"/><path d="M918.5,705.3987a.71879.71879,0,0,1-.71906-.71857V403.39122a.71907.71907,0,0,1,1.43813,0V704.68013A.7188.7188,0,0,1,918.5,705.3987Z" transform="translate(-194.05176 -175.5)" fill="#3f3d56"/><path d="M918.5,461.55719a.717.717,0,0,1-.50849-.21052l-34.61187-34.58829a.71881.71881,0,1,1,1.017-1.01612l34.61187,34.58829a.71858.71858,0,0,1-.50849,1.22664Z" transform="translate(-194.05176 -175.5)" fill="#3f3d56"/><path d="M918.5,521.43646a.71859.71859,0,0,1-.50849-1.22664l57.96386-57.92493a.71881.71881,0,0,1,1.017,1.01612l-57.96386,57.92492A.71718.71718,0,0,1,918.5,521.43646Z" transform="translate(-194.05176 -175.5)" fill="#3f3d56"/><path d="M866.47822,724.22249c.125.09649.25641.18314.3827.27751H974.06866c2.10069-8.50549,2.84249-17.02006-.29532-24.41432-4.47055-10.5364-17.702-17.11348-28.2211-12.5887a16.0604,16.0604,0,0,0-6.30878,4.9882c-4.11081-7.35347-11.48476-12.89776-19.99629-12.89171-10.66356.00761-19.52971,8.72221-22.42291,18.7884-4.65935-7.85912-13.86228-13.35143-22.85727-10.98875C858.92185,691.34479,854.1697,714.71641,866.47822,724.22249Z" transform="translate(-194.05176 -175.5)" fill="#f2f2f2"/><path d="M616.55812,521.18894c7.37864,14.59866-.331,35.16665-16.446,39.78467-4.53267,1.29891-9.66887,1.1628-13.66041-1.57486-3.29534-2.26017-5.67343-6.25671-5.3598-10.32521.60354-7.8292,10.57271-10.73863,16.92043-8.21147,8.595,3.42185,12.44416,13.50484,13.64635,21.97006,1.46978,10.34937-.54869,21.04207-4.59267,30.60406-8.09568,19.14225-24.11968,34.05632-40.00464,46.85868a253.09756,253.09756,0,0,1-53.17955,32.8793q-3.58248,1.64424-7.21487,3.17585a1.51056,1.51056,0,0,0-.53813,2.05229,1.53833,1.53833,0,0,0,2.05229.53812,256.43884,256.43884,0,0,0,58.43079-34.4798c17.29144-13.57006,34.74077-29.5872,43.36529-50.27016,4.29937-10.31054,6.23475-21.69844,4.47685-32.79584-1.47988-9.34231-6.12653-19.67939-15.49979-23.36973-7.39465-2.91135-17.70165.15693-20.32937,8.18918-1.44464,4.4159.05093,9.19188,2.91051,12.684a16.66325,16.66325,0,0,0,12.701,5.87348c9.6434.20028,18.46811-5.98783,23.31173-14.01829a33.31985,33.31985,0,0,0,3.8627-25.146,29.53071,29.53071,0,0,0-2.26231-5.93245c-.87108-1.72343-3.46009-.2065-2.59042,1.51415Z" transform="translate(-194.05176 -175.5)" fill="#ccc"/><polygon points="588.623 527.306 577.842 531.111 558.035 491.341 573.946 485.725 588.623 527.306" fill="#a0616a"/><path d="M765.184,704.49437h22.04781a0,0,0,0,1,0,0v13.88195a0,0,0,0,1,0,0H751.302a0,0,0,0,1,0,0v0A13.88193,13.88193,0,0,1,765.184,704.49437Z" transform="translate(-386.98543 121.10781) rotate(-19.44132)" fill="#2f2e41"/><polygon points="471.562 537.833 460.13 537.832 454.693 493.736 471.566 493.737 471.562 537.833" fill="#a0616a"/><path d="M451.96353,534.5653h22.04781a0,0,0,0,1,0,0v13.88195a0,0,0,0,1,0,0H438.0816a0,0,0,0,1,0,0v0A13.88193,13.88193,0,0,1,451.96353,534.5653Z" fill="#2f2e41"/><path d="M664.55535,700.38428a4.55073,4.55073,0,0,1-1.1189-.14063l-16.86035-4.27441a4.49238,4.49238,0,0,1-3.38111-4.70606l16.11182-210.25146.49854.03808-.49854-.03808A18.052,18.052,0,0,1,676.33,464.40234l50.95508-2.64453,8.56763,131.94531,50.8164,91.51954a4.49971,4.49971,0,0,1-2.41455,6.41992L760.84783,700.042a4.47505,4.47505,0,0,1-5.60547-2.34912l-59.75806-129.415a1.50012,1.50012,0,0,0-2.83691.356L668.96745,696.69971a4.50785,4.50785,0,0,1-4.4121,3.68457Z" transform="translate(-194.05176 -175.5)" fill="#2f2e41"/><path d="M608.64471,513.69564a9.37694,9.37694,0,0,1,13.77666-4.11629l17.75488-11.9968,9.922,9.01148L624.787,523.18367a9.42779,9.42779,0,0,1-16.14224-9.488Z" transform="translate(-194.05176 -175.5)" fill="#a0616a"/><circle cx="511.11617" cy="181.59655" r="24.56103" fill="#a0616a"/><path d="M671.74919,469.95117a9.3262,9.3262,0,0,1-9.14843-11.04053l4.28735-22.91455c-4.57617-16.61523,18.73266-31.26367,19.72925-31.88086l14.54223-5.57666.17871.4668-.17871-.4668A17.72316,17.72316,0,0,1,725.20915,415.71l-1.76294,50.39111L672.464,469.92432C672.225,469.94238,671.98625,469.95117,671.74919,469.95117Z" transform="translate(-194.05176 -175.5)" fill="#31cde6"/><path d="M693.027,627.07568a246.89745,246.89745,0,0,1-33.45043-2.67431l-.46875-.07325.04834-.47167c.88159-8.60743,21.64746-210.958,26.14086-225.22168,1.16114-3.686,4.77271-6.583,10.73462-8.60987,18.73926-6.36963,39.78687,3.07617,47.91724,21.50586a51.17457,51.17457,0,0,1,4.31323,21.59522l-3.77978,178.1372-.39868.0752c-.10425.02-10.572,2.06592-24.39185,10.99658C714.06853,625.96875,703.63933,627.07568,693.027,627.07568Z" transform="translate(-194.05176 -175.5)" fill="#3f3d56"/><path d="M721.06286,433.21754c12.99227,22.057,6.437,33.80227-5.85366,56.31056-6.81719,12.48458-27.851,27.92506-37.70318,18s-2.06577-23.4184,2.21274-37.12243,13.48092-24.98787,23.08778-35.18194C709.65576,427.95583,723.79778,433.92263,721.06286,433.21754Z" transform="translate(-194.05176 -175.5)" opacity="0.05098"/><path d="M636.58293,519.52051a4.50547,4.50547,0,0,1-4.34741-3.33887l-3.11841-11.66016a4.52085,4.52085,0,0,1,1.72876-4.82226l50.48633-36.12207,6.80347-38.64356a19.09914,19.09914,0,1,1,36.73633,9.90088l-14.37964,39.123a31.65664,31.65664,0,0,1-15.83594,17.57471l-56.09155,27.52636A4.49373,4.49373,0,0,1,636.58293,519.52051Z" transform="translate(-194.05176 -175.5)" fill="#3f3d56"/><path d="M694.79705,347.77246a10.99687,10.99687,0,0,1-20.63146-7.12662,24.535,24.535,0,0,1,45.514-6.68573c7.7728-5.43545,19.97412-2.69,24.6695,5.551s.83626,20.13708-7.80266,24.05237c-4.29906,1.9484-3.97917,9.47119.46977,11.0476a7.59008,7.59008,0,0,1-.07737,14.33542c-5.59766,1.9157-11.30288,3.85151-17.21738,4.00114s-12.17978-1.76391-15.91264-6.35407-3.99287-12.124.41062-16.07538a14.098,14.098,0,0,0,2.85879-16.7518C704.1402,348.40644,696.27917,344.74738,694.79705,347.77246Z" transform="translate(-194.05176 -175.5)" fill="#2f2e41"/><path d="M536.17107,719.17041a6.49765,6.49765,0,0,1-5.59766-9.78369v-.00049l9.09717-15.53174,11.21753,6.57031L541.79094,715.957A6.50448,6.50448,0,0,1,536.17107,719.17041Z" transform="translate(-194.05176 -175.5)" fill="#31cde6"/><circle cx="377.81845" cy="500.1724" r="8" fill="#31cde6"/><path d="M500.97307,719.17041a6.49768,6.49768,0,0,1-5.59766-9.78418l9.09717-15.53174,11.21729,6.57031L506.5927,715.957A6.50514,6.50514,0,0,1,500.97307,719.17041Z" transform="translate(-194.05176 -175.5)" fill="#31cde6"/><path d="M553.35027,708.78906H513.04119a20.71429,20.71429,0,0,1-20.69092-20.69092v-6.12353a7.19375,7.19375,0,0,1,7.1853-7.18555h53.8147a17,17,0,0,1,0,34Z" transform="translate(-194.05176 -175.5)" fill="#3f3d56"/><path d="M551.44011,724.46a6.50736,6.50736,0,0,1-6.5-6.5v-18h13v18A6.50736,6.50736,0,0,1,551.44011,724.46Z" transform="translate(-194.05176 -175.5)" fill="#3f3d56"/><path d="M513.7177,724.46a6.50736,6.50736,0,0,1-6.5-6.5v-18h13v18A6.50736,6.50736,0,0,1,513.7177,724.46Z" transform="translate(-194.05176 -175.5)" fill="#3f3d56"/><path d="M504.7177,650.4209h-16v-21a8,8,0,0,1,16,0Z" transform="translate(-194.05176 -175.5)" fill="#31cde6"/><path d="M503.44914,680.17236H476.9865a5.7753,5.7753,0,0,1-5.7688-5.76855V660.543a18.3915,18.3915,0,0,1,18.3706-18.37061H493.81a15.42532,15.42532,0,0,1,15.40772,15.40772v16.82373A5.7751,5.7751,0,0,1,503.44914,680.17236Z" transform="translate(-194.05176 -175.5)" fill="#3f3d56"/><path d="M504.7177,650.4209h-11v-23.5a5.5,5.5,0,0,1,11,0Z" transform="translate(-194.05176 -175.5)" fill="#3f3d56"/><path d="M501.976,680h-29a8,8,0,0,1,0-16h29Z" transform="translate(-194.05176 -175.5)" fill="#3f3d56"/><ellipse cx="271.67353" cy="496.35583" rx="1.875" ry="3.375" fill="#31cde6"/><path d="M824.44844,724.5h-381a1,1,0,0,1,0-2h381a1,1,0,1,1,0,2Z" transform="translate(-194.05176 -175.5)" fill="#3f3d56"/></svg>

<?xml version="1.0" encoding="UTF-8" standalone="no"?>
<!DOCTYPE svg PUBLIC "-//W3C//DTD SVG 1.1//EN" "http://www.w3.org/Graphics/SVG/1.1/DTD/svg11.dtd">
<svg width="100%" height="100%" viewBox="0 0 812 549" version="1.1" xmlns="http://www.w3.org/2000/svg" xmlns:xlink="http://www.w3.org/1999/xlink" xml:space="preserve" xmlns:serif="http://www.serif.com/" style="fill-rule:evenodd;clip-rule:evenodd;stroke-linejoin:round;stroke-miterlimit:2;">
    <g transform="matrix(-1,0,0,1,1005.95,-175.5)">
        <path d="M194.052,402.046C194.052,334.88 248.5,175.5 315.665,175.5C382.831,175.5 437.279,334.88 437.279,402.046C437.26,468.748 382.368,523.624 315.665,523.624C248.963,523.624 194.071,468.748 194.052,402.046Z" style="fill:rgb(49,205,230);fill-rule:nonzero;"/>
    </g>
    <g transform="matrix(-1,0,0,1,1005.95,-175.5)">
        <path d="M315.665,697.918C315.117,697.918 314.665,697.467 314.665,696.918L314.665,277.634C314.665,277.085 315.117,276.634 315.665,276.634C316.214,276.634 316.665,277.085 316.665,277.634L316.665,696.918C316.665,697.467 316.214,697.918 315.665,697.918Z" style="fill:rgb(63,61,86);fill-rule:nonzero;"/>
    </g>
    <g transform="matrix(-1,0,0,1,1005.95,-175.5)">
        <path d="M315.665,358.58C315.4,358.58 315.146,358.474 314.958,358.287L266.824,310.152C266.633,309.964 266.526,309.708 266.526,309.44C266.526,308.892 266.977,308.44 267.526,308.44C267.794,308.44 268.05,308.548 268.238,308.738L316.373,356.873C316.56,357.06 316.665,357.314 316.665,357.58C316.665,358.128 316.214,358.58 315.665,358.58L315.665,358.58Z" style="fill:rgb(63,61,86);fill-rule:nonzero;"/>
    </g>
    <g transform="matrix(-1,0,0,1,1005.95,-175.5)">
        <path d="M315.665,441.91C315.117,441.91 314.666,441.458 314.666,440.91C314.666,440.645 314.771,440.39 314.958,440.203L395.568,359.592C395.756,359.402 396.013,359.295 396.28,359.295C396.829,359.295 397.28,359.746 397.28,360.295C397.28,360.562 397.173,360.819 396.983,361.006L316.373,441.617C316.185,441.804 315.931,441.91 315.665,441.91Z" style="fill:rgb(63,61,86);fill-rule:nonzero;"/>
    </g>
    <g transform="matrix(-1,0,0,1,1005.95,-175.5)">
        <path d="M243.319,724.114C243.493,724.248 243.676,724.369 243.851,724.5L392.944,724.5C395.866,712.663 396.897,700.814 392.534,690.524C386.317,675.861 367.916,666.708 353.287,673.005C349.821,674.537 346.801,676.927 344.513,679.947C338.796,669.714 328.542,661.998 316.705,662.007C301.875,662.017 289.545,674.145 285.521,688.153C279.041,677.216 266.243,669.573 253.734,672.861C232.811,678.36 226.202,710.885 243.319,724.114Z" style="fill:rgb(242,242,242);fill-rule:nonzero;"/>
    </g>
    <g transform="matrix(-1,0,0,1,1005.95,-175.5)">
        <path d="M831.052,492.791C831.052,444.527 870.204,330 918.5,330C966.796,330 1005.95,444.527 1005.95,492.791C1005.92,540.741 966.45,580.18 918.5,580.18C870.55,580.18 831.084,540.741 831.052,492.791Z" style="fill:rgb(230,230,230);fill-rule:nonzero;"/>
    </g>
    <g transform="matrix(-1,0,0,1,1005.95,-175.5)">
        <path d="M918.5,705.399L918.5,705.399C918.105,705.399 917.781,705.074 917.781,704.68L917.781,403.391C917.782,402.998 918.107,402.675 918.5,402.675C918.893,402.675 919.218,402.998 919.219,403.391L919.219,704.68C919.219,705.074 918.895,705.399 918.5,705.399Z" style="fill:rgb(63,61,86);fill-rule:nonzero;"/>
    </g>
    <g transform="matrix(-1,0,0,1,1005.95,-175.5)">
        <path d="M918.5,461.557C918.309,461.557 918.126,461.482 917.992,461.347L883.38,426.758C883.245,426.624 883.169,426.441 883.169,426.25C883.169,425.856 883.494,425.532 883.888,425.532C884.079,425.532 884.262,425.607 884.397,425.742L919.009,460.331C919.143,460.465 919.219,460.648 919.219,460.839C919.219,461.233 918.895,461.557 918.5,461.557L918.5,461.557Z" style="fill:rgb(63,61,86);fill-rule:nonzero;"/>
    </g>
    <g transform="matrix(-1,0,0,1,1005.95,-175.5)">
        <path d="M918.5,521.436C918.5,521.436 918.5,521.436 918.5,521.436C918.105,521.436 917.781,521.112 917.781,520.718C917.781,520.527 917.857,520.345 917.992,520.21L975.955,462.285C976.09,462.15 976.273,462.074 976.464,462.074C976.858,462.074 977.183,462.399 977.183,462.793C977.183,462.983 977.107,463.166 976.972,463.301L919.009,521.226C918.874,521.361 918.691,521.437 918.5,521.436Z" style="fill:rgb(63,61,86);fill-rule:nonzero;"/>
    </g>
    <g transform="matrix(-1,0,0,1,1005.95,-175.5)">
        <path d="M866.478,724.222C866.603,724.319 866.735,724.406 866.861,724.5L974.069,724.5C976.169,715.995 976.911,707.48 973.773,700.086C969.303,689.549 956.071,682.972 945.552,687.497C943.06,688.598 940.889,690.314 939.243,692.485C935.133,685.132 927.759,679.587 919.247,679.593C908.584,679.601 899.717,688.316 896.824,698.382C892.165,690.523 882.962,685.03 873.967,687.393C858.922,691.345 854.17,714.716 866.478,724.222Z" style="fill:rgb(242,242,242);fill-rule:nonzero;"/>
    </g>
    <g transform="matrix(-1,0,0,1,1005.95,-175.5)">
        <path d="M616.558,521.189C623.937,535.788 616.227,556.356 600.112,560.974C595.579,562.273 590.443,562.136 586.452,559.399C583.156,557.139 580.778,553.142 581.092,549.074C581.695,541.244 591.665,538.335 598.012,540.862C606.607,544.284 610.457,554.367 611.659,562.832C613.128,573.182 611.11,583.874 607.066,593.436C598.97,612.578 582.946,627.493 567.061,640.295C550.762,653.41 532.899,664.454 513.882,673.174C511.494,674.27 509.089,675.329 506.667,676.35C505.961,676.769 505.719,677.691 506.129,678.402C506.557,679.096 507.467,679.335 508.181,678.94C529.099,670.086 548.748,658.491 566.612,644.461C583.903,630.891 601.353,614.873 609.977,594.19C614.277,583.88 616.212,572.492 614.454,561.395C612.974,552.052 608.328,541.715 598.954,538.025C591.56,535.114 581.253,538.182 578.625,546.214C577.18,550.63 578.676,555.406 581.535,558.898C584.7,562.623 589.349,564.772 594.236,564.772C603.88,564.972 612.705,558.784 617.548,550.753C622.109,543.215 623.499,534.167 621.411,525.607C620.872,523.554 620.114,521.565 619.149,519.675C618.277,517.951 615.688,519.468 616.558,521.189L616.558,521.189Z" style="fill:rgb(204,204,204);fill-rule:nonzero;"/>
    </g>
    <g transform="matrix(-1,0,0,1,811.896,0)">
        <path d="M588.623,527.306L577.842,531.111L558.035,491.341L573.946,485.725L588.623,527.306Z" style="fill:rgb(160,97,106);fill-rule:nonzero;"/>
    </g>
    <g transform="matrix(-0.942983,-0.332841,-0.332841,0.942983,1198.88,121.108)">
        <path d="M765.184,704.494L787.232,704.494L787.232,718.376L751.302,718.376C751.302,718.376 751.302,718.376 751.302,718.376C751.302,710.761 757.569,704.494 765.184,704.494Z" style="fill:rgb(47,46,65);fill-rule:nonzero;"/>
    </g>
    <g transform="matrix(-1,0,0,1,811.896,0)">
        <path d="M471.562,537.833L460.13,537.832L454.693,493.736L471.566,493.737L471.562,537.833Z" style="fill:rgb(160,97,106);fill-rule:nonzero;"/>
    </g>
    <g transform="matrix(-1,0,0,1,811.896,0)">
        <path d="M451.964,534.565L474.011,534.565L474.011,548.447L438.082,548.447C438.082,548.447 438.082,548.447 438.082,548.447C438.082,540.832 444.348,534.565 451.964,534.565Z" style="fill:rgb(47,46,65);fill-rule:nonzero;"/>
    </g>
    <g transform="matrix(-1,0,0,1,1005.95,-175.5)">
        <path d="M664.555,700.384C664.178,700.384 663.802,700.337 663.436,700.244L646.576,695.969C644.462,695.436 643.025,693.437 643.195,691.263L659.307,481.012L659.805,481.05L659.307,481.012C660.013,472.033 667.337,464.888 676.33,464.402L727.285,461.758L735.853,593.703L786.669,685.223C787.04,685.891 787.235,686.643 787.235,687.407C787.235,689.302 786.038,691.003 784.255,691.643L760.848,700.042C758.664,700.838 756.206,699.808 755.242,697.693L695.484,568.278C695.239,567.748 694.706,567.407 694.122,567.407C693.402,567.407 692.779,567.926 692.647,568.634L668.967,696.7C668.574,698.82 666.711,700.375 664.555,700.384Z" style="fill:rgb(47,46,65);fill-rule:nonzero;"/>
    </g>
    <g transform="matrix(-1,0,0,1,1005.95,-175.5)">
        <path d="M608.645,513.696C610.123,510.263 613.519,508.029 617.256,508.029C619.093,508.029 620.889,508.568 622.421,509.579L640.176,497.583L650.098,506.594L624.787,523.184C623.006,525.529 620.224,526.91 617.279,526.91C612.107,526.91 607.851,522.654 607.851,517.482C607.851,516.178 608.121,514.889 608.645,513.696L608.645,513.696Z" style="fill:rgb(160,97,106);fill-rule:nonzero;"/>
    </g>
    <g transform="matrix(-1,0,0,1,811.896,0)">
        <circle cx="511.116" cy="181.597" r="24.561" style="fill:rgb(160,97,106);"/>
    </g>
    <g transform="matrix(-1,0,0,1,1005.95,-175.5)">
        <path d="M671.749,469.951C666.64,469.941 662.442,465.734 662.442,460.625C662.442,460.05 662.495,459.476 662.601,458.911L666.888,435.996C662.312,419.381 685.621,404.732 686.617,404.115L701.16,398.539L701.338,399.005L701.16,398.539C703.183,397.764 705.331,397.367 707.497,397.367C717.219,397.367 725.22,405.367 725.22,415.09C725.22,415.297 725.216,415.503 725.209,415.71L723.446,466.101L672.464,469.924C672.225,469.942 671.986,469.951 671.749,469.951Z" style="fill:rgb(49,205,230);fill-rule:nonzero;"/>
    </g>
    <g transform="matrix(-1,0,0,1,1005.95,-175.5)">
        <path d="M693.027,627.076C681.829,626.944 670.653,626.05 659.577,624.401L659.108,624.328L659.156,623.856C660.038,615.249 680.804,412.898 685.297,398.635C686.458,394.949 690.07,392.052 696.032,390.025C714.771,383.655 735.819,393.101 743.949,411.531C746.937,418.331 748.409,425.7 748.262,433.126L744.482,611.263L744.084,611.338C743.979,611.358 733.512,613.404 719.692,622.335C714.069,625.969 703.639,627.076 693.027,627.076Z" style="fill:rgb(63,61,86);fill-rule:nonzero;"/>
    </g>
    <g transform="matrix(-1,0,0,1,1005.95,-175.5)">
        <path d="M721.063,433.218C734.055,455.275 727.5,467.02 715.209,489.528C708.392,502.013 687.358,517.453 677.506,507.528C667.654,497.603 675.44,484.11 679.719,470.406C683.997,456.702 693.2,445.418 702.807,435.224C709.656,427.956 723.798,433.923 721.063,433.218Z" style="fill-opacity:0.05;fill-rule:nonzero;"/>
    </g>
    <g transform="matrix(-1,0,0,1,1005.95,-175.5)">
        <path d="M636.583,519.521C634.552,519.519 632.761,518.143 632.236,516.182L629.117,504.521C628.64,502.715 629.33,500.791 630.846,499.699L681.332,463.577L688.136,424.934C689.737,415.841 697.713,409.146 706.946,409.146C717.423,409.146 726.045,417.768 726.045,428.245C726.045,430.493 725.648,432.724 724.872,434.834L710.492,473.957C707.684,481.639 702.005,487.942 694.656,491.532L638.565,519.059C637.948,519.362 637.27,519.52 636.583,519.521Z" style="fill:rgb(63,61,86);fill-rule:nonzero;"/>
    </g>
    <g transform="matrix(-1,0,0,1,1005.95,-175.5)">
        <path d="M694.797,347.772C692.953,351.536 689.112,353.931 684.922,353.931C678.889,353.931 673.925,348.967 673.925,342.934C673.925,342.165 674.006,341.398 674.166,340.646C676.567,329.358 686.623,321.216 698.164,321.216C707.113,321.216 715.379,326.112 719.68,333.96C727.452,328.525 739.654,331.27 744.349,339.511C749.044,347.752 745.185,359.648 736.546,363.563C732.247,365.512 732.567,373.035 737.016,374.611C740.039,375.682 742.071,378.558 742.071,381.765C742.071,385.002 740.001,387.899 736.939,388.947C731.341,390.862 725.636,392.798 719.721,392.948C713.807,393.097 707.542,391.184 703.809,386.594C700.076,382.003 699.816,374.47 704.219,370.518C708.795,366.213 709.967,359.345 707.078,353.766C704.14,348.406 696.279,344.747 694.797,347.772Z" style="fill:rgb(47,46,65);fill-rule:nonzero;"/>
    </g>
    <g transform="matrix(-1,0,0,1,1005.95,-175.5)">
        <path d="M536.171,719.17C532.61,719.166 529.681,716.234 529.681,712.673C529.681,711.518 529.989,710.383 530.573,709.387L530.573,709.386L539.671,693.854L550.888,700.425L541.791,715.957C540.623,717.948 538.479,719.174 536.171,719.17Z" style="fill:rgb(49,205,230);fill-rule:nonzero;"/>
    </g>
    <g transform="matrix(-1,0,0,1,811.896,0)">
        <circle cx="377.818" cy="500.172" r="8" style="fill:rgb(49,205,230);"/>
    </g>
    <g transform="matrix(-1,0,0,1,1005.95,-175.5)">
        <path d="M500.973,719.17C497.411,719.166 494.483,716.234 494.483,712.673C494.483,711.517 494.791,710.383 495.375,709.386L504.473,693.854L515.69,700.425L506.593,715.957C505.425,717.948 503.281,719.174 500.973,719.17Z" style="fill:rgb(49,205,230);fill-rule:nonzero;"/>
    </g>
    <g transform="matrix(-1,0,0,1,1005.95,-175.5)">
        <path d="M553.35,708.789L513.041,708.789C501.695,708.776 492.363,699.444 492.35,688.098L492.35,681.975C492.355,678.035 495.595,674.794 499.536,674.789L553.35,674.789C562.676,674.789 570.35,682.463 570.35,691.789C570.35,701.115 562.676,708.789 553.35,708.789Z" style="fill:rgb(63,61,86);fill-rule:nonzero;"/>
    </g>
    <g transform="matrix(-1,0,0,1,1005.95,-175.5)">
        <path d="M551.44,724.46C547.876,724.456 544.944,721.524 544.94,717.96L544.94,699.96L557.94,699.96L557.94,717.96C557.936,721.524 555.004,724.456 551.44,724.46Z" style="fill:rgb(63,61,86);fill-rule:nonzero;"/>
    </g>
    <g transform="matrix(-1,0,0,1,1005.95,-175.5)">
        <path d="M513.718,724.46C510.153,724.456 507.222,721.524 507.218,717.96L507.218,699.96L520.218,699.96L520.218,717.96C520.214,721.524 517.282,724.456 513.718,724.46Z" style="fill:rgb(63,61,86);fill-rule:nonzero;"/>
    </g>
    <g transform="matrix(-1,0,0,1,1005.95,-175.5)">
        <path d="M504.718,650.421L488.718,650.421L488.718,629.421C488.718,625.032 492.329,621.421 496.718,621.421C501.106,621.421 504.718,625.032 504.718,629.421L504.718,650.421Z" style="fill:rgb(49,205,230);fill-rule:nonzero;"/>
    </g>
    <g transform="matrix(-1,0,0,1,1005.95,-175.5)">
        <path d="M503.449,680.172L476.986,680.172C473.823,680.169 471.221,677.567 471.218,674.404L471.218,660.543C471.229,650.47 479.515,642.184 489.588,642.172L493.81,642.172C502.259,642.182 509.208,649.131 509.218,657.58L509.218,674.404C509.214,677.567 506.612,680.169 503.449,680.172Z" style="fill:rgb(63,61,86);fill-rule:nonzero;"/>
    </g>
    <g transform="matrix(-1,0,0,1,1005.95,-175.5)">
        <path d="M504.718,650.421L493.718,650.421L493.718,626.921C493.718,623.904 496.2,621.421 499.218,621.421C502.235,621.421 504.718,623.904 504.718,626.921L504.718,650.421Z" style="fill:rgb(63,61,86);fill-rule:nonzero;"/>
    </g>
    <g transform="matrix(-1,0,0,1,1005.95,-175.5)">
        <path d="M501.976,680L472.976,680C468.587,680 464.976,676.389 464.976,672C464.976,667.611 468.587,664 472.976,664L501.976,664L501.976,680Z" style="fill:rgb(63,61,86);fill-rule:nonzero;"/>
    </g>
    <g transform="matrix(-1,0,0,1,811.896,0)">
        <ellipse cx="271.674" cy="496.356" rx="1.875" ry="3.375" style="fill:rgb(49,205,230);"/>
    </g>
    <g transform="matrix(-1,0,0,1,1005.95,-175.5)">
        <path d="M824.448,724.5L443.448,724.5C442.9,724.5 442.448,724.049 442.448,723.5C442.448,722.951 442.9,722.5 443.448,722.5L824.448,722.5C824.997,722.5 825.448,722.951 825.448,723.5C825.448,724.049 824.997,724.5 824.448,724.5Z" style="fill:rgb(63,61,86);fill-rule:nonzero;"/>
    </g>
</svg>
